X:1
T:Title
%%score [ ( 1 2 ) ( 3 4 ) ] { ( 5 6 ) | ( 7 8 ) }
L:1/8
Q:1/4=120
M:4/4
K:E
V:1 treble nm="Midi_74"
V:2 treble 
V:3 bass nm="Midi_74"
V:4 bass 
V:5 treble nm="Org."
V:6 treble 
V:7 bass 
V:8 bass 
V:1
 (G6 A2) | B4 c4 | B6 c2 || (d6 e2) | f4 e4 | d4 c4 | B8 || (e6 d2) |{d} c4 (B2 A2) | G8 || %10
 (G6 F2) | A4 G4 |"^John Camidge\n(1790-1859)" F4 D4 | E8 |] %14
V:2
 (E6 F2) | G4 A4 | G8 || (F6 ^A2) | B4 G4 | F4 F4 | F8 || G8 | A4 F4 | E8 || (E6 F2) | E4 D4 | %12
 C4 B,4 | B,8 |] %14
V:3
 B,8 | E4 E4 | E8 || (D6 C2) | B,4 C4 | D4 E4 | D8 || B,8 | C4 D4 | E8 || B,8 | A,4 B,4 | C4 A,4 | %13
 G,8 |] %14
V:4
 E,8 | E,4 E,4 | (E,6 D,C,) || (B,,6 C,2) | D,4 E,4 | F,4 F,4 | B,8 || E,8 | E,4 E,4 | E,8 || %10
 (E,6 D,2) | C,4 B,,4 | A,,4 B,,4 | E,8 |] %14
V:5
 G6 A2 | B4 c4 | B6 [^Ac]2 || d6 e2 | f4 e4 | d4 c4 | B8 || e6 d2 |{d} c4 B2 A2 |{A} G8 || G6 F2 | %11
 A4 G4 | F4{E} TD4 | E8 |] %14
V:6
 E6 F2 | G4 A4 | G6 FE || [DFB]6 [F^A]2 | [FB]4 [Gc]4 | [FB]4 [EF^A]4 | [DF]8 || [EGB]8 | %8
 [EA]4 [DF]4 | E8 || B,8 | E4 D4 | C4 [F,A,B,]4 | B,8 |] %14
V:7
 x8 | x8 | x8 || x8 | x8 | x8 | x8 || E,8 | E,4 E,4 | E,8 || x8 | x8 | x8 | [G,B,]8 |] %14
V:8
 [E,,E,]8 | [E,,E,]4 [E,,E,]4 | [E,,E,]6 D,C, || B,,6 C,2 | D,4 E,4 | F,4 F,,4 | B,,8 || E,,8- | %8
 E,,8 | E,,8 || E,6 D,2 | C,4 B,,4 | A,,4 B,,4 | [E,,E,]8 |] %14

